packages/astro-components-stencil/src/icons/trending-up.svg

<svg width="24" height="24" viewBox="0 0 24 24" fill="none" xmlns="http://www.w3.org/2000/svg">
<path d="M16.85 6.85L18.29 8.29L13.41 13.17L10.12 9.88C9.72998 9.49 9.09998 9.49 8.70998 9.88L2.70998 15.89C2.31998 16.28 2.31998 16.91 2.70998 17.3C3.09998 17.69 3.72998 17.69 4.11998 17.3L9.40998 12L12.7 15.29C13.09 15.68 13.72 15.68 14.11 15.29L19.7 9.71L21.14 11.15C21.45 11.46 21.99 11.24 21.99 10.8V6.5C22 6.22 21.78 6 21.5 6H17.21C16.76 6 16.54 6.54 16.85 6.85Z" fill="black"/>
</svg>

<svg xmlns="http://www.w3.org/2000/svg" viewBox="0 0 24 24"><g xmlns="http://www.w3.org/2000/svg" id="trending-up" fill-rule="nonzero">
            <path d="M16.85 6.85l1.44 1.44-4.88 4.88-3.29-3.29a.996.996 0 00-1.41 0l-6 6.01a.996.996 0 101.41 1.41L9.41 12l3.29 3.29c.39.39 1.02.39 1.41 0l5.59-5.58 1.44 1.44a.5.5 0 00.85-.35V6.5a.48.48 0 00-.49-.5h-4.29a.5.5 0 00-.36.85z"/>
        </g></svg>
